icon/pk/inspection.svg

<svg viewBox="0 0 48 48" fill="none" xmlns="http://www.w3.org/2000/svg" height="1em" width="1em">
  <path d="M43 33V19H5V41C5 42.1046 5.89543 43 7 43H24" stroke="black" stroke-width="4" stroke-linecap="round" stroke-linejoin="round"/>
  <path d="M5 10C5 8.89543 5.89543 8 7 8H41C42.1046 8 43 8.89543 43 10V19H5V10Z" stroke="black" stroke-width="4" stroke-linejoin="round"/>
  <path d="M16 5V13" stroke="black" stroke-width="4" stroke-linecap="round"/>
  <path d="M32 5V13" stroke="black" stroke-width="4" stroke-linecap="round"/>
  <circle cx="30" cy="32" r="7" fill="#2F88FF" stroke="black" stroke-width="4"/>
  <path d="M36 37L42 42" stroke="black" stroke-width="4" stroke-linecap="round" stroke-linejoin="round"/>
</svg>

<svg width="48" height="48" fill="none" xmlns="http://www.w3.org/2000/svg"><path d="M43 33V19H5v22a2 2 0 0 0 2 2h17" stroke="#000" stroke-width="4" stroke-linecap="round" stroke-linejoin="round"/><path d="M5 10a2 2 0 0 1 2-2h34a2 2 0 0 1 2 2v9H5v-9Z" stroke="#000" stroke-width="4" stroke-linejoin="round"/><path d="M16 5v8M32 5v8" stroke="#000" stroke-width="4" stroke-linecap="round"/><circle cx="30" cy="32" r="7" fill="#2F88FF" stroke="#000" stroke-width="4"/><path d="m36 37 6 5" stroke="#000" stroke-width="4" stroke-linecap="round" stroke-linejoin="round"/></svg>
